X: 373
T: Shieryue xiaochang
L: 1/8
M: 2/4
K: F
F2E D [I:setbarnb 1]| 
C2z2 | 
F G A G | 
F2z2 | 
F2G A | 
G2F2 | 
G F E D | 
C2z2 | 
F CF2 | 
E DC2 | 
F C F G | 
E DC2 | 
C> C G A | 
C2z2 | 
GG2A | 
C2F2 | 
G2G D | 
G G G D | 
C3D | 
C2z2 |]

@@@ Tune index: 9247
